icons/svg/needle.svg

﻿<?xml version="1.0" encoding="utf-8"?>
<!DOCTYPE svg PUBLIC "-//W3C//DTD SVG 1.1//EN" "http://www.w3.org/Graphics/SVG/1.1/DTD/svg11.dtd">
<svg xmlns="http://www.w3.org/2000/svg" xmlns:xlink="http://www.w3.org/1999/xlink" version="1.1" baseProfile="full" width="24" height="24" viewBox="0 0 24.00 24.00" enable-background="new 0 0 24.00 24.00" xml:space="preserve">
	<path fill="#000000" fill-opacity="1" stroke-width="0.2" stroke-linejoin="round" d="M 11.1464,15.182L 9.73223,13.7678L 11.1464,12.3536L 12.5607,13.7678L 13.9749,12.3536L 12.5607,10.9393L 13.9749,9.52512L 15.3891,10.9393L 16.8033,9.52513L 13.9749,6.6967L 6.9038,13.7678L 9.73223,16.5962L 11.1464,15.182 Z M 3.07538,19.0104L 6.1967,15.8891L 4.07538,13.7678L 13.9749,3.86827L 16.0962,5.98959L 17.5104,4.57538L 16.0962,3.16117L 17.5104,1.74695L 21.753,5.98959L 20.3388,7.4038L 18.9246,5.98959L 17.5104,7.4038L 19.6317,9.52512L 9.73223,19.4246L 7.61091,17.3033L 3.07538,21.8388L 3.07538,19.0104 Z "/>
</svg>

<svg xmlns="http://www.w3.org/2000/svg" version="1.1" baseProfile="full" width="24" height="24" viewBox="0 0 24.00 24.00" xml:space="preserve"><path fill="#000" fill-opacity="1" stroke-width=".2" stroke-linejoin="round" d="M11.146 15.182l-1.414-1.414 1.414-1.414 1.415 1.414 1.415-1.414-1.414-1.415 1.415-1.415 1.414 1.414 1.413-1.415-2.828-2.828-7.07 7.07 2.827 2.83 1.414-1.415zm-8.07 3.828l3.12-3.12-2.12-2.122 9.9-9.9 2.12 2.122 1.414-1.415-1.414-1.414 1.414-1.413 4.243 4.243-1.414 1.414-1.415-1.414-1.415 1.414 2.122 2.12-9.9 9.9-2.12-2.12-4.537 4.535v-2.83z"/></svg>
